packages/devextreme-scss/images/icons/material/sparkle.svg

<!-- Generated by IcoMoon.io -->
<svg version="1.1" xmlns="http://www.w3.org/2000/svg" width="24" height="24" viewBox="0 0 24 24">
<path d="M19 9l1.25-2.75 2.75-1.25-2.75-1.25-1.25-2.75-1.25 2.75-2.75 1.25 2.75 1.25 1.25 2.75zM11.5 9.5l-2.5-5.5-2.5 5.5-5.5 2.5 5.5 2.5 2.5 5.5 2.5-5.5 5.5-2.5-5.5-2.5zM19 15l-1.25 2.75-2.75 1.25 2.75 1.25 1.25 2.75 1.25-2.75 2.75-1.25-2.75-1.25-1.25-2.75z"></path>
</svg>

<svg width="24" height="24" viewBox="0 0 24 24" fill="none" xmlns="http://www.w3.org/2000/svg">
<path d="M19 9L20.25 6.25L23 5L20.25 3.75L19 1L17.75 3.75L15 5L17.75 6.25L19 9ZM11.5 9.5L9 4L6.5 9.5L1 12L6.5 14.5L9 20L11.5 14.5L17 12L11.5 9.5ZM19 15L17.75 17.75L15 19L17.75 20.25L19 23L20.25 20.25L23 19L20.25 17.75L19 15Z" fill="black"/>
</svg>
